X: 114
T:Lafferty's Reel
T:Glen of Aherlow, The
M:C|
L:1/8
C:Sen Ryan
R:Reel
K:EDor
B2AF BFAF|~E3F EDB,D|B2AF BFAF|DFAF FEE2|!
B2AF BFAF|~E3F EDB,A,|B,E~E2 DEFA|dBAF FEE2:|!
|:eB~B2 efge|fd~d2 Adfd|eB~B2 egfe|dBAF FEE2|!
eB~B2 efge|fd~d2 Adfd|~B3d egfe|dBAF FEE2:|]
